16x16/actions/rabbitvcs-update.svg

<svg viewBox="0 0 16 16" xmlns="http://www.w3.org/2000/svg"><path d="m3.5 1.998v.002a1.5 1.5 0 0 0 -1.5 1.5 1.48 1.48 0 0 0 1 1.406v6.188c-.586.204-1 .75-1 1.406a1.5 1.5 0 0 0 3 0 1.48 1.48 0 0 0 -1-1.406v-6.188c.077-.027.148-.054.219-.093l2.875 2.156a1.5 1.5 0 1 0 .625-.75l-2.844-2.125a1.5 1.5 0 0 0 -1.375-2.096zm0 1a.5.5 0 1 1 0 1 .5.5 0 0 1 0-1zm5 4a.5.5 0 1 1 0 1 .5.5 0 0 1 0-1zm2.5 1.002v4.094l-2.281-2.281-.719.689 3.281 3.312.219.188.219-.188 3.281-3.312-.719-.69-2.281 2.283v-4.095zm-7.5 3.998a.5.5 0 1 1 0 1 .5.5 0 0 1 0-1z" fill="#8b9cbe"/></svg>

<svg xmlns="http://www.w3.org/2000/svg" viewBox="0 0 16 16"><path style="fill:currentColor;fill-opacity:1;stroke:none;color:#8b9cbe" d="M3.5 1.998V2A1.5 1.5 0 0 0 2 3.5a1.48 1.48 0 0 0 1 1.406v6.188c-.586.204-1 .75-1 1.406a1.5 1.5 0 0 0 3 0 1.48 1.48 0 0 0-1-1.406V4.906c.077-.027.148-.054.219-.093l2.875 2.156a1.5 1.5 0 1 0 .625-.75L4.875 4.094A1.5 1.5 0 0 0 3.5 1.998zm0 1a.5.5 0 1 1 0 1 .5.5 0 0 1 0-1zm5 4a.5.5 0 1 1 0 1 .5.5 0 0 1 0-1zM11 8v4.094L8.719 9.813 8 10.502l3.281 3.312.219.188.219-.188L15 10.502l-.719-.69L12 12.095V8h-1zm-7.5 3.998a.5.5 0 1 1 0 1 .5.5 0 0 1 0-1z"/></svg>
